X: 41668
T: Upperchurch, The
R: polka
M: 2/4
K: Gmajor
|:GB/d/ ed|AB BA|G>d ed|A2 A2|
FA FA|ff fe|1 d2 ed|B2 BA:|2 d2 ef|g2 g2||
|:gg/g/ fe|dB Bd|g2 fe|d4|
A2 A/B/d|ff fe|1 d2 ed|B2 B2:|2 d^c/d/ ef|g4||

